X: 1
T:Waltzing Matilda  " "
M:C
L:1/8
Q:80
C:Unk
S:Retreat March
K:HP
f2{GdG}f2{g}e2{GdG}e2|
{Gdc}d3/2e/2{g}fdBc{Gdc}d2|
{g}A2{Gdc}df{ag}a2{f}gf|  !
{g}e2{GdG}e2{Gdc}d4|] [|
{g}e2{GdG}ef{g}e2{gcd}c2|
a2{g}ag{fg}f2{g}e2|  !
{A}e2{GdG}e2{g}f2ef|
{gef}e2{Gdc}dc{gBd}B2{g}A3/2d/2|
{g}f2{GdG}f2{g}e2{GdG}e2|  !
{Gdc}d3/2e/2{g}fdBc{Gdc}d2|
{g}A2{Gdc}df{ag}a2{f}gf|
{g}e2{GdG}e2{Gdc}d4|]  !
